X:1
T: A Draught of Ale
C:
R:Jig
Q:180
K:G
M:6/8
L:1/16
D2|G2B2A2 G4B2|d2e2f2 g2d2B2|G2B2A2 G4B2|A2F2D2 A2F2D2|G2B2A2 G4B2|d2e2f2 g2f2g2|e2c2A2 d2B2G2|c2A2F2 G4D2|
G2B2A2 G4B2|d2e2f2 g2d2B2|G2B2A2 G4B2|A2F2D2 A2F2D2|G2B2A2 G4B2|d2e2f2 g2f2g2|e2c2A2 d2B2G2|c2A2F2 G4B2|
d2e2d2 d2c2B2|d2e2f2 g2d2B2|d2e2d2 d2c2B2|A2F2D2 A2F2D2|d2e2d2 d2c2B2|d2e2f2 g2f2g2|e2c2A2 d2B2G2|c2A2F2 G4B2|
d2e2d2 d2c2B2|d2e2f2 g2d2B2|d2e2d2 d2c2B2|A2F2D2 A2F2D2|d2e2d2 d2c2B2|d2e2f2 g2f2g2|e2c2A2 d2B2G2|c2A2F2 G4||
